X: 5079
T: Bride's Forgotten Name, The
R: jig
M: 6/8
K: Dminor
"Dm"D2 D "A"EDE|"Dm"F2 A, F2 A,|"Dm"F2 F "Gm"GFG|"F"A3- A2 d|
"Gm"BdB BAG|"F"ABA AGF|"Edim"E2 E G2 E|"A"A3 A3/2G/F/E/|
"Dm"D2 D "A"EDE|"F"F2 A, F3|"F"F2 F "Gm"GFG|"A"A3- A2 d|
"Bb"BdB BAG|"F"ABA AGF|"Edim"G2 E "A"^CA,C|"Dm"D3- D2 d|
"Gm"B2 d BAG|"Dm"A3 AGF|"A"G2 G GEG|"Dm"A3- A2 d|
"Bb"BdB BAG|"F"ABA AGF|"Edim"E2 E G2 E|"A"D3 ^C3|
"Dm"D2 A, "A"E2 A,|"F"F2 A, F2 E|"F"F2 F "Gm"GFG|"A"A3 A2 d|
"Bb"BdB BAG|"F"ABA AGF|"Edim"G2 E "A"^CA,C|"Dm"D3 D3||

